X:81
T:Off to California
R:hornpipe
Z:id:hn-hornpipe-81
M:C|
K:A
(3EFG|AcBc AFEF|Acea f2 (3efg|agae fecA|BcBA F2 (3EFG|
AcBc AFEF|Acea f2 (3efg|agae fecA|BA (3GAB A2:|
|:z2|ag (3fga gfeg|fefg fece|agae fecA|BcBA F2 (3EFG|
AcBc AFEF|Acea f2 (3efg|agae fecA|BA (3GAB A2:|

